helga/general/setup/ocio/nuke_modified/luts/srgb_s_curve.3dl
0 256 512 767 1023
5 5 5
5 5 424
5 5 1008
5 5 2469
5 5 4095
5 424 5
5 424 424
5 424 1008
5 424 2469
5 424 4095
5 1008 5
5 1008 424
5 1008 1008
5 1008 2469
5 1008 4095
5 2469 5
5 2469 424
5 2469 1008
5 2469 2469
5 2469 4095
5 4095 5
5 4095 424
5 4095 1008
5 4095 2469
5 4095 4095
424 5 5
424 5 424
424 5 1008
424 5 2469
424 5 4095
424 424 5
424 424 424
424 424 1008
424 424 2469
424 424 4095
424 1008 5
424 1008 424
424 1008 1008
424 1008 2469
424 1008 4095
424 2469 5
424 2469 424
424 2469 1008
424 2469 2469
424 2469 4095
424 4095 5
424 4095 424
424 4095 1008
424 4095 2469
424 4095 4095
1008 5 5
1008 5 424
1008 5 1008
1008 5 2469
1008 5 4095
1008 424 5
1008 424 424
1008 424 1008
1008 424 2469
1008 424 4095
1008 1008 5
1008 1008 424
1008 1008 1008
1008 1008 2469
1008 1008 4095
1008 2469 5
1008 2469 424
1008 2469 1008
1008 2469 2469
1008 2469 4095
1008 4095 5
1008 4095 424
1008 4095 1008
1008 4095 2469
1008 4095 4095
2469 5 5
2469 5 424
2469 5 1008
2469 5 2469
2469 5 4095
2469 424 5
2469 424 424
2469 424 1008
2469 424 2469
2469 424 4095
2469 1008 5
2469 1008 424
2469 1008 1008
2469 1008 2469
2469 1008 4095
2469 2469 5
2469 2469 424
2469 2469 1008
2469 2469 2469
2469 2469 4095
2469 4095 5
2469 4095 424
2469 4095 1008
2469 4095 2469
2469 4095 4095
4095 5 5
4095 5 424
4095 5 1008
4095 5 2469
4095 5 4095
4095 424 5
4095 424 424
4095 424 1008
4095 424 2469
4095 424 4095
4095 1008 5
4095 1008 424
4095 1008 1008
4095 1008 2469
4095 1008 4095
4095 2469 5
4095 2469 424
4095 2469 1008
4095 2469 2469
4095 2469 4095
4095 4095 5
4095 4095 424
4095 4095 1008
4095 4095 2469
4095 4095 4095
