helga/general/setup/ocio/nuke_modified/luts/srgb_s_curve.3dl
0 64 128 192 256 320 384 448 512 575 639 703 767 831 895 959 1023
5 5 5
5 5 103
5 5 193
5 5 314
5 5 424
5 5 537
5 5 666
5 5 821
5 5 1008
5 5 1240
5 5 1533
5 5 1921
5 5 2469
5 5 3393
5 5 4095
5 5 4095
5 5 4095
5 103 5
5 103 103
5 103 193
5 103 314
5 103 424
5 103 537
5 103 666
5 103 821
5 103 1008
5 103 1240
5 103 1533
5 103 1921
5 103 2469
5 103 3393
5 103 4095
5 103 4095
5 103 4095
5 193 5
5 193 103
5 193 193
5 193 314
5 193 424
5 193 537
5 193 666
5 193 821
5 193 1008
5 193 1240
5 193 1533
5 193 1921
5 193 2469
5 193 3393
5 193 4095
5 193 4095
5 193 4095
5 314 5
5 314 103
5 314 193
5 314 314
5 314 424
5 314 537
5 314 666
5 314 821
5 314 1008
5 314 1240
5 314 1533
5 314 1921
5 314 2469
5 314 3393
5 314 4095
5 314 4095
5 314 4095
5 424 5
5 424 103
5 424 193
5 424 314
5 424 424
5 424 537
5 424 666
5 424 821
5 424 1008
5 424 1240
5 424 1533
5 424 1921
5 424 2469
5 424 3393
5 424 4095
5 424 4095
5 424 4095
5 537 5
5 537 103
5 537 193
5 537 314
5 537 424
5 537 537
5 537 666
5 537 821
5 537 1008
5 537 1240
5 537 1533
5 537 1921
5 537 2469
5 537 3393
5 537 4095
5 537 4095
5 537 4095
5 666 5
5 666 103
5 666 193
5 666 314
5 666 424
5 666 537
5 666 666
5 666 821
5 666 1008
5 666 1240
5 666 1533
5 666 1921
5 666 2469
5 666 3393
5 666 4095
5 666 4095
5 666 4095
5 821 5
5 821 103
5 821 193
5 821 314
5 821 424
5 821 537
5 821 666
5 821 821
5 821 1008
5 821 1240
5 821 1533
5 821 1921
5 821 2469
5 821 3393
5 821 4095
5 821 4095
5 821 4095
5 1008 5
5 1008 103
5 1008 193
5 1008 314
5 1008 424
5 1008 537
5 1008 666
5 1008 821
5 1008 1008
5 1008 1240
5 1008 1533
5 1008 1921
5 1008 2469
5 1008 3393
5 1008 4095
5 1008 4095
5 1008 4095
5 1240 5
5 1240 103
5 1240 193
5 1240 314
5 1240 424
5 1240 537
5 1240 666
5 1240 821
5 1240 1008
5 1240 1240
5 1240 1533
5 1240 1921
5 1240 2469
5 1240 3393
5 1240 4095
5 1240 4095
5 1240 4095
5 1533 5
5 1533 103
5 1533 193
5 1533 314
5 1533 424
5 1533 537
5 1533 666
5 1533 821
5 1533 1008
5 1533 1240
5 1533 1533
5 1533 1921
5 1533 2469
5 1533 3393
5 1533 4095
5 1533 4095
5 1533 4095
5 1921 5
5 1921 103
5 1921 193
5 1921 314
5 1921 424
5 1921 537
5 1921 666
5 1921 821
5 1921 1008
5 1921 1240
5 1921 1533
5 1921 1921
5 1921 2469
5 1921 3393
5 1921 4095
5 1921 4095
5 1921 4095
5 2469 5
5 2469 103
5 2469 193
5 2469 314
5 2469 424
5 2469 537
5 2469 666
5 2469 821
5 2469 1008
5 2469 1240
5 2469 1533
5 2469 1921
5 2469 2469
5 2469 3393
5 2469 4095
5 2469 4095
5 2469 4095
5 3393 5
5 3393 103
5 3393 193
5 3393 314
5 3393 424
5 3393 537
5 3393 666
5 3393 821
5 3393 1008
5 3393 1240
5 3393 1533
5 3393 1921
5 3393 2469
5 3393 3393
5 3393 4095
5 3393 4095
5 3393 4095
5 4095 5
5 4095 103
5 4095 193
5 4095 314
5 4095 424
5 4095 537
5 4095 666
5 4095 821
5 4095 1008
5 4095 1240
5 4095 1533
5 4095 1921
5 4095 2469
5 4095 3393
5 4095 4095
5 4095 4095
5 4095 4095
5 4095 5
5 4095 103
5 4095 193
5 4095 314
5 4095 424
5 4095 537
5 4095 666
5 4095 821
5 4095 1008
5 4095 1240
5 4095 1533
5 4095 1921
5 4095 2469
5 4095 3393
5 4095 4095
5 4095 4095
5 4095 4095
5 4095 5
5 4095 103
5 4095 193
5 4095 314
5 4095 424
5 4095 537
5 4095 666
5 4095 821
5 4095 1008
5 4095 1240
5 4095 1533
5 4095 1921
5 4095 2469
5 4095 3393
5 4095 4095
5 4095 4095
5 4095 4095
103 5 5
103 5 103
103 5 193
103 5 314
103 5 424
103 5 537
103 5 666
103 5 821
103 5 1008
103 5 1240
103 5 1533
103 5 1921
103 5 2469
103 5 3393
103 5 4095
103 5 4095
103 5 4095
103 103 5
103 103 103
103 103 193
103 103 314
103 103 424
103 103 537
103 103 666
103 103 821
103 103 1008
103 103 1240
103 103 1533
103 103 1921
103 103 2469
103 103 3393
103 103 4095
103 103 4095
103 103 4095
103 193 5
103 193 103
103 193 193
103 193 314
103 193 424
103 193 537
103 193 666
103 193 821
103 193 1008
103 193 1240
103 193 1533
103 193 1921
103 193 2469
103 193 3393
103 193 4095
103 193 4095
103 193 4095
103 314 5
103 314 103
103 314 193
103 314 314
103 314 424
103 314 537
103 314 666
103 314 821
103 314 1008
103 314 1240
103 314 1533
103 314 1921
103 314 2469
103 314 3393
103 314 4095
103 314 4095
103 314 4095
103 424 5
103 424 103
103 424 193
103 424 314
103 424 424
103 424 537
103 424 666
103 424 821
103 424 1008
103 424 1240
103 424 1533
103 424 1921
103 424 2469
103 424 3393
103 424 4095
103 424 4095
103 424 4095
103 537 5
103 537 103
103 537 193
103 537 314
103 537 424
103 537 537
103 537 666
103 537 821
103 537 1008
103 537 1240
103 537 1533
103 537 1921
103 537 2469
103 537 3393
103 537 4095
103 537 4095
103 537 4095
103 666 5
103 666 103
103 666 193
103 666 314
103 666 424
103 666 537
103 666 666
103 666 821
103 666 1008
103 666 1240
103 666 1533
103 666 1921
103 666 2469
103 666 3393
103 666 4095
103 666 4095
103 666 4095
103 821 5
103 821 103
103 821 193
103 821 314
103 821 424
103 821 537
103 821 666
103 821 821
103 821 1008
103 821 1240
103 821 1533
103 821 1921
103 821 2469
103 821 3393
103 821 4095
103 821 4095
103 821 4095
103 1008 5
103 1008 103
103 1008 193
103 1008 314
103 1008 424
103 1008 537
103 1008 666
103 1008 821
103 1008 1008
103 1008 1240
103 1008 1533
103 1008 1921
103 1008 2469
103 1008 3393
103 1008 4095
103 1008 4095
103 1008 4095
103 1240 5
103 1240 103
103 1240 193
103 1240 314
103 1240 424
103 1240 537
103 1240 666
103 1240 821
103 1240 1008
103 1240 1240
103 1240 1533
103 1240 1921
103 1240 2469
103 1240 3393
103 1240 4095
103 1240 4095
103 1240 4095
103 1533 5
103 1533 103
103 1533 193
103 1533 314
103 1533 424
103 1533 537
103 1533 666
103 1533 821
103 1533 1008
103 1533 1240
103 1533 1533
103 1533 1921
103 1533 2469
103 1533 3393
103 1533 4095
103 1533 4095
103 1533 4095
103 1921 5
103 1921 103
103 1921 193
103 1921 314
103 1921 424
103 1921 537
103 1921 666
103 1921 821
103 1921 1008
103 1921 1240
103 1921 1533
103 1921 1921
103 1921 2469
103 1921 3393
103 1921 4095
103 1921 4095
103 1921 4095
103 2469 5
103 2469 103
103 2469 193
103 2469 314
103 2469 424
103 2469 537
103 2469 666
103 2469 821
103 2469 1008
103 2469 1240
103 2469 1533
103 2469 1921
103 2469 2469
103 2469 3393
103 2469 4095
103 2469 4095
103 2469 4095
103 3393 5
103 3393 103
103 3393 193
103 3393 314
103 3393 424
103 3393 537
103 3393 666
103 3393 821
103 3393 1008
103 3393 1240
103 3393 1533
103 3393 1921
103 3393 2469
103 3393 3393
103 3393 4095
103 3393 4095
103 3393 4095
103 4095 5
103 4095 103
103 4095 193
103 4095 314
103 4095 424
103 4095 537
103 4095 666
103 4095 821
103 4095 1008
103 4095 1240
103 4095 1533
103 4095 1921
103 4095 2469
103 4095 3393
103 4095 4095
103 4095 4095
103 4095 4095
103 4095 5
103 4095 103
103 4095 193
103 4095 314
103 4095 424
103 4095 537
103 4095 666
103 4095 821
103 4095 1008
103 4095 1240
103 4095 1533
103 4095 1921
103 4095 2469
103 4095 3393
103 4095 4095
103 4095 4095
103 4095 4095
103 4095 5
103 4095 103
103 4095 193
103 4095 314
103 4095 424
103 4095 537
103 4095 666
103 4095 821
103 4095 1008
103 4095 1240
103 4095 1533
103 4095 1921
103 4095 2469
103 4095 3393
103 4095 4095
103 4095 4095
103 4095 4095
193 5 5
193 5 103
193 5 193
193 5 314
193 5 424
193 5 537
193 5 666
193 5 821
193 5 1008
193 5 1240
193 5 1533
193 5 1921
193 5 2469
193 5 3393
193 5 4095
193 5 4095
193 5 4095
193 103 5
193 103 103
193 103 193
193 103 314
193 103 424
193 103 537
193 103 666
193 103 821
193 103 1008
193 103 1240
193 103 1533
193 103 1921
193 103 2469
193 103 3393
193 103 4095
193 103 4095
193 103 4095
193 193 5
193 193 103
193 193 193
193 193 314
193 193 424
193 193 537
193 193 666
193 193 821
193 193 1008
193 193 1240
193 193 1533
193 193 1921
193 193 2469
193 193 3393
193 193 4095
193 193 4095
193 193 4095
193 314 5
193 314 103
193 314 193
193 314 314
193 314 424
193 314 537
193 314 666
193 314 821
193 314 1008
193 314 1240
193 314 1533
193 314 1921
193 314 2469
193 314 3393
193 314 4095
193 314 4095
193 314 4095
193 424 5
193 424 103
193 424 193
193 424 314
193 424 424
193 424 537
193 424 666
193 424 821
193 424 1008
193 424 1240
193 424 1533
193 424 1921
193 424 2469
193 424 3393
193 424 4095
193 424 4095
193 424 4095
193 537 5
193 537 103
193 537 193
193 537 314
193 537 424
193 537 537
193 537 666
193 537 821
193 537 1008
193 537 1240
193 537 1533
193 537 1921
193 537 2469
193 537 3393
193 537 4095
193 537 4095
193 537 4095
193 666 5
193 666 103
193 666 193
193 666 314
193 666 424
193 666 537
193 666 666
193 666 821
193 666 1008
193 666 1240
193 666 1533
193 666 1921
193 666 2469
193 666 3393
193 666 4095
193 666 4095
193 666 4095
193 821 5
193 821 103
193 821 193
193 821 314
193 821 424
193 821 537
193 821 666
193 821 821
193 821 1008
193 821 1240
193 821 1533
193 821 1921
193 821 2469
193 821 3393
193 821 4095
193 821 4095
193 821 4095
193 1008 5
193 1008 103
193 1008 193
193 1008 314
193 1008 424
193 1008 537
193 1008 666
193 1008 821
193 1008 1008
193 1008 1240
193 1008 1533
193 1008 1921
193 1008 2469
193 1008 3393
193 1008 4095
193 1008 4095
193 1008 4095
193 1240 5
193 1240 103
193 1240 193
193 1240 314
193 1240 424
193 1240 537
193 1240 666
193 1240 821
193 1240 1008
193 1240 1240
193 1240 1533
193 1240 1921
193 1240 2469
193 1240 3393
193 1240 4095
193 1240 4095
193 1240 4095
193 1533 5
193 1533 103
193 1533 193
193 1533 314
193 1533 424
193 1533 537
193 1533 666
193 1533 821
193 1533 1008
193 1533 1240
193 1533 1533
193 1533 1921
193 1533 2469
193 1533 3393
193 1533 4095
193 1533 4095
193 1533 4095
193 1921 5
193 1921 103
193 1921 193
193 1921 314
193 1921 424
193 1921 537
193 1921 666
193 1921 821
193 1921 1008
193 1921 1240
193 1921 1533
193 1921 1921
193 1921 2469
193 1921 3393
193 1921 4095
193 1921 4095
193 1921 4095
193 2469 5
193 2469 103
193 2469 193
193 2469 314
193 2469 424
193 2469 537
193 2469 666
193 2469 821
193 2469 1008
193 2469 1240
193 2469 1533
193 2469 1921
193 2469 2469
193 2469 3393
193 2469 4095
193 2469 4095
193 2469 4095
193 3393 5
193 3393 103
193 3393 193
193 3393 314
193 3393 424
193 3393 537
193 3393 666
193 3393 821
193 3393 1008
193 3393 1240
193 3393 1533
193 3393 1921
193 3393 2469
193 3393 3393
193 3393 4095
193 3393 4095
193 3393 4095
193 4095 5
193 4095 103
193 4095 193
193 4095 314
193 4095 424
193 4095 537
193 4095 666
193 4095 821
193 4095 1008
193 4095 1240
193 4095 1533
193 4095 1921
193 4095 2469
193 4095 3393
193 4095 4095
193 4095 4095
193 4095 4095
193 4095 5
193 4095 103
193 4095 193
193 4095 314
193 4095 424
193 4095 537
193 4095 666
193 4095 821
193 4095 1008
193 4095 1240
193 4095 1533
193 4095 1921
193 4095 2469
193 4095 3393
193 4095 4095
193 4095 4095
193 4095 4095
193 4095 5
193 4095 103
193 4095 193
193 4095 314
193 4095 424
193 4095 537
193 4095 666
193 4095 821
193 4095 1008
193 4095 1240
193 4095 1533
193 4095 1921
193 4095 2469
193 4095 3393
193 4095 4095
193 4095 4095
193 4095 4095
314 5 5
314 5 103
314 5 193
314 5 314
314 5 424
314 5 537
314 5 666
314 5 821
314 5 1008
314 5 1240
314 5 1533
314 5 1921
314 5 2469
314 5 3393
314 5 4095
314 5 4095
314 5 4095
314 103 5
314 103 103
314 103 193
314 103 314
314 103 424
314 103 537
314 103 666
314 103 821
314 103 1008
314 103 1240
314 103 1533
314 103 1921
314 103 2469
314 103 3393
314 103 4095
314 103 4095
