helga/general/setup/ocio/nuke_modified/luts/srgb_s_curve.3dl
0 128 256 384 512 639 767 895 1023
5 5 5
5 5 193
5 5 424
5 5 666
5 5 1008
5 5 1533
5 5 2469
5 5 4095
5 5 4095
5 193 5
5 193 193
5 193 424
5 193 666
5 193 1008
5 193 1533
5 193 2469
5 193 4095
5 193 4095
5 424 5
5 424 193
5 424 424
5 424 666
5 424 1008
5 424 1533
5 424 2469
5 424 4095
5 424 4095
5 666 5
5 666 193
5 666 424
5 666 666
5 666 1008
5 666 1533
5 666 2469
5 666 4095
5 666 4095
5 1008 5
5 1008 193
5 1008 424
5 1008 666
5 1008 1008
5 1008 1533
5 1008 2469
5 1008 4095
5 1008 4095
5 1533 5
5 1533 193
5 1533 424
5 1533 666
5 1533 1008
5 1533 1533
5 1533 2469
5 1533 4095
5 1533 4095
5 2469 5
5 2469 193
5 2469 424
5 2469 666
5 2469 1008
5 2469 1533
5 2469 2469
5 2469 4095
5 2469 4095
5 4095 5
5 4095 193
5 4095 424
5 4095 666
5 4095 1008
5 4095 1533
5 4095 2469
5 4095 4095
5 4095 4095
5 4095 5
5 4095 193
5 4095 424
5 4095 666
5 4095 1008
5 4095 1533
5 4095 2469
5 4095 4095
5 4095 4095
193 5 5
193 5 193
193 5 424
193 5 666
193 5 1008
193 5 1533
193 5 2469
193 5 4095
193 5 4095
193 193 5
193 193 193
193 193 424
193 193 666
193 193 1008
193 193 1533
193 193 2469
193 193 4095
193 193 4095
193 424 5
193 424 193
193 424 424
193 424 666
193 424 1008
193 424 1533
193 424 2469
193 424 4095
193 424 4095
193 666 5
193 666 193
193 666 424
193 666 666
193 666 1008
193 666 1533
193 666 2469
193 666 4095
193 666 4095
193 1008 5
193 1008 193
193 1008 424
193 1008 666
193 1008 1008
193 1008 1533
193 1008 2469
193 1008 4095
193 1008 4095
193 1533 5
193 1533 193
193 1533 424
193 1533 666
193 1533 1008
193 1533 1533
193 1533 2469
193 1533 4095
193 1533 4095
193 2469 5
193 2469 193
193 2469 424
193 2469 666
193 2469 1008
193 2469 1533
193 2469 2469
193 2469 4095
193 2469 4095
193 4095 5
193 4095 193
193 4095 424
193 4095 666
193 4095 1008
193 4095 1533
193 4095 2469
193 4095 4095
193 4095 4095
193 4095 5
193 4095 193
193 4095 424
193 4095 666
193 4095 1008
193 4095 1533
193 4095 2469
193 4095 4095
193 4095 4095
424 5 5
424 5 193
424 5 424
424 5 666
424 5 1008
424 5 1533
424 5 2469
424 5 4095
424 5 4095
424 193 5
424 193 193
424 193 424
424 193 666
424 193 1008
424 193 1533
424 193 2469
424 193 4095
424 193 4095
424 424 5
424 424 193
424 424 424
424 424 666
424 424 1008
424 424 1533
424 424 2469
424 424 4095
424 424 4095
424 666 5
424 666 193
424 666 424
424 666 666
424 666 1008
424 666 1533
424 666 2469
424 666 4095
424 666 4095
424 1008 5
424 1008 193
424 1008 424
424 1008 666
424 1008 1008
424 1008 1533
424 1008 2469
424 1008 4095
424 1008 4095
424 1533 5
424 1533 193
424 1533 424
424 1533 666
424 1533 1008
424 1533 1533
424 1533 2469
424 1533 4095
424 1533 4095
424 2469 5
424 2469 193
424 2469 424
424 2469 666
424 2469 1008
424 2469 1533
424 2469 2469
424 2469 4095
424 2469 4095
424 4095 5
424 4095 193
424 4095 424
424 4095 666
424 4095 1008
424 4095 1533
424 4095 2469
424 4095 4095
424 4095 4095
424 4095 5
424 4095 193
424 4095 424
424 4095 666
424 4095 1008
424 4095 1533
424 4095 2469
424 4095 4095
424 4095 4095
666 5 5
666 5 193
666 5 424
666 5 666
666 5 1008
666 5 1533
666 5 2469
666 5 4095
666 5 4095
666 193 5
666 193 193
666 193 424
666 193 666
666 193 1008
666 193 1533
666 193 2469
666 193 4095
666 193 4095
666 424 5
666 424 193
666 424 424
666 424 666
666 424 1008
666 424 1533
666 424 2469
666 424 4095
666 424 4095
666 666 5
666 666 193
666 666 424
666 666 666
666 666 1008
666 666 1533
666 666 2469
666 666 4095
666 666 4095
666 1008 5
666 1008 193
666 1008 424
666 1008 666
666 1008 1008
666 1008 1533
666 1008 2469
666 1008 4095
666 1008 4095
666 1533 5
666 1533 193
666 1533 424
666 1533 666
666 1533 1008
666 1533 1533
666 1533 2469
666 1533 4095
666 1533 4095
666 2469 5
666 2469 193
666 2469 424
666 2469 666
666 2469 1008
666 2469 1533
666 2469 2469
666 2469 4095
666 2469 4095
666 4095 5
666 4095 193
666 4095 424
666 4095 666
666 4095 1008
666 4095 1533
666 4095 2469
666 4095 4095
666 4095 4095
666 4095 5
666 4095 193
666 4095 424
666 4095 666
666 4095 1008
666 4095 1533
666 4095 2469
666 4095 4095
666 4095 4095
1008 5 5
1008 5 193
1008 5 424
1008 5 666
1008 5 1008
1008 5 1533
1008 5 2469
1008 5 4095
1008 5 4095
1008 193 5
1008 193 193
1008 193 424
1008 193 666
1008 193 1008
1008 193 1533
1008 193 2469
1008 193 4095
1008 193 4095
1008 424 5
1008 424 193
1008 424 424
1008 424 666
1008 424 1008
1008 424 1533
1008 424 2469
1008 424 4095
1008 424 4095
1008 666 5
1008 666 193
1008 666 424
1008 666 666
1008 666 1008
1008 666 1533
1008 666 2469
1008 666 4095
1008 666 4095
1008 1008 5
1008 1008 193
1008 1008 424
1008 1008 666
1008 1008 1008
1008 1008 1533
1008 1008 2469
1008 1008 4095
1008 1008 4095
1008 1533 5
1008 1533 193
1008 1533 424
1008 1533 666
1008 1533 1008
1008 1533 1533
1008 1533 2469
1008 1533 4095
1008 1533 4095
1008 2469 5
1008 2469 193
1008 2469 424
1008 2469 666
1008 2469 1008
1008 2469 1533
1008 2469 2469
1008 2469 4095
1008 2469 4095
1008 4095 5
1008 4095 193
1008 4095 424
1008 4095 666
1008 4095 1008
1008 4095 1533
1008 4095 2469
1008 4095 4095
1008 4095 4095
1008 4095 5
1008 4095 193
1008 4095 424
1008 4095 666
1008 4095 1008
1008 4095 1533
1008 4095 2469
1008 4095 4095
1008 4095 4095
1533 5 5
1533 5 193
1533 5 424
1533 5 666
1533 5 1008
1533 5 1533
1533 5 2469
1533 5 4095
1533 5 4095
1533 193 5
1533 193 193
1533 193 424
1533 193 666
1533 193 1008
1533 193 1533
1533 193 2469
1533 193 4095
1533 193 4095
1533 424 5
1533 424 193
1533 424 424
1533 424 666
1533 424 1008
1533 424 1533
1533 424 2469
1533 424 4095
1533 424 4095
1533 666 5
1533 666 193
1533 666 424
1533 666 666
1533 666 1008
1533 666 1533
1533 666 2469
1533 666 4095
1533 666 4095
1533 1008 5
1533 1008 193
1533 1008 424
1533 1008 666
1533 1008 1008
1533 1008 1533
1533 1008 2469
1533 1008 4095
1533 1008 4095
1533 1533 5
1533 1533 193
1533 1533 424
1533 1533 666
1533 1533 1008
1533 1533 1533
1533 1533 2469
1533 1533 4095
1533 1533 4095
1533 2469 5
1533 2469 193
1533 2469 424
1533 2469 666
1533 2469 1008
1533 2469 1533
1533 2469 2469
1533 2469 4095
1533 2469 4095
1533 4095 5
1533 4095 193
1533 4095 424
1533 4095 666
1533 4095 1008
1533 4095 1533
1533 4095 2469
1533 4095 4095
1533 4095 4095
1533 4095 5
1533 4095 193
1533 4095 424
1533 4095 666
1533 4095 1008
1533 4095 1533
1533 4095 2469
1533 4095 4095
1533 4095 4095
2469 5 5
2469 5 193
2469 5 424
2469 5 666
2469 5 1008
2469 5 1533
2469 5 2469
2469 5 4095
2469 5 4095
2469 193 5
2469 193 193
2469 193 424
2469 193 666
2469 193 1008
2469 193 1533
2469 193 2469
2469 193 4095
2469 193 4095
2469 424 5
2469 424 193
2469 424 424
2469 424 666
2469 424 1008
2469 424 1533
2469 424 2469
2469 424 4095
2469 424 4095
2469 666 5
2469 666 193
2469 666 424
2469 666 666
2469 666 1008
2469 666 1533
2469 666 2469
2469 666 4095
2469 666 4095
2469 1008 5
2469 1008 193
2469 1008 424
2469 1008 666
2469 1008 1008
2469 1008 1533
2469 1008 2469
2469 1008 4095
2469 1008 4095
2469 1533 5
2469 1533 193
2469 1533 424
2469 1533 666
2469 1533 1008
2469 1533 1533
2469 1533 2469
2469 1533 4095
2469 1533 4095
2469 2469 5
2469 2469 193
2469 2469 424
2469 2469 666
2469 2469 1008
2469 2469 1533
2469 2469 2469
2469 2469 4095
2469 2469 4095
2469 4095 5
2469 4095 193
2469 4095 424
2469 4095 666
2469 4095 1008
2469 4095 1533
2469 4095 2469
2469 4095 4095
2469 4095 4095
2469 4095 5
2469 4095 193
2469 4095 424
2469 4095 666
2469 4095 1008
2469 4095 1533
2469 4095 2469
2469 4095 4095
2469 4095 4095
4095 5 5
4095 5 193
4095 5 424
4095 5 666
4095 5 1008
4095 5 1533
4095 5 2469
4095 5 4095
4095 5 4095
4095 193 5
4095 193 193
4095 193 424
4095 193 666
4095 193 1008
4095 193 1533
4095 193 2469
4095 193 4095
4095 193 4095
4095 424 5
4095 424 193
4095 424 424
4095 424 666
4095 424 1008
4095 424 1533
4095 424 2469
4095 424 4095
4095 424 4095
4095 666 5
4095 666 193
4095 666 424
4095 666 666
4095 666 1008
4095 666 1533
4095 666 2469
4095 666 4095
4095 666 4095
4095 1008 5
4095 1008 193
4095 1008 424
4095 1008 666
4095 1008 1008
4095 1008 1533
4095 1008 2469
4095 1008 4095
4095 1008 4095
4095 1533 5
4095 1533 193
4095 1533 424
4095 1533 666
4095 1533 1008
4095 1533 1533
4095 1533 2469
4095 1533 4095
4095 1533 4095
4095 2469 5
4095 2469 193
4095 2469 424
4095 2469 666
4095 2469 1008
4095 2469 1533
4095 2469 2469
4095 2469 4095
4095 2469 4095
4095 4095 5
4095 4095 193
4095 4095 424
4095 4095 666
4095 4095 1008
4095 4095 1533
4095 4095 2469
4095 4095 4095
4095 4095 4095
4095 4095 5
4095 4095 193
4095 4095 424
4095 4095 666
4095 4095 1008
4095 4095 1533
4095 4095 2469
4095 4095 4095
4095 4095 4095
4095 5 5
4095 5 193
4095 5 424
4095 5 666
4095 5 1008
4095 5 1533
4095 5 2469
4095 5 4095
4095 5 4095
4095 193 5
4095 193 193
4095 193 424
4095 193 666
4095 193 1008
4095 193 1533
4095 193 2469
4095 193 4095
4095 193 4095
4095 424 5
4095 424 193
4095 424 424
4095 424 666
4095 424 1008
4095 424 1533
4095 424 2469
4095 424 4095
4095 424 4095
4095 666 5
4095 666 193
4095 666 424
4095 666 666
4095 666 1008
4095 666 1533
4095 666 2469
4095 666 4095
4095 666 4095
4095 1008 5
4095 1008 193
4095 1008 424
4095 1008 666
4095 1008 1008
4095 1008 1533
4095 1008 2469
4095 1008 4095
4095 1008 4095
4095 1533 5
4095 1533 193
4095 1533 424
4095 1533 666
4095 1533 1008
4095 1533 1533
4095 1533 2469
4095 1533 4095
4095 1533 4095
4095 2469 5
4095 2469 193
4095 2469 424
4095 2469 666
4095 2469 1008
4095 2469 1533
4095 2469 2469
4095 2469 4095
4095 2469 4095
4095 4095 5
4095 4095 193
4095 4095 424
4095 4095 666
4095 4095 1008
4095 4095 1533
4095 4095 2469
4095 4095 4095
4095 4095 4095
4095 4095 5
4095 4095 193
4095 4095 424
4095 4095 666
4095 4095 1008
4095 4095 1533
4095 4095 2469
4095 4095 4095
4095 4095 4095
